!!!COM: Palestrina, Giovanni Perluigi da
!!!OPR: Missa Pro Defunctis
!!!OMD: Kyrie
!!!OTL: Offertorium
**kern	**kern	**kern	**kern	**kern
*Ibass	*Itenor	*Itenor	*Icalto	*Icant
!Bassus	!Tenor 2	!Tenor 1	!Altus	!Cantus
*clefF4	*clefGv2	*clefGv2	*clefG2	*clefG2
*k[]	*k[]	*k[]	*k[]	*k[]
*?:X	*?:X	*?:X	*?:X	*?:X
*M4/2	*M4/2	*M4/2	*M4/2	*M4/2
=51	=51	=51	=51	=51
0r	1r	1.d	0r	0r
.	[1d	.	.	.
.	.	2c	.	.
=52	=52	=52	=52	=52
1.G	2d]	2B-	1r	0r
.	2c	2A	.	.
.	2B-	1G	1d	.
2F	2A	.	.	.
=53	=53	=53	=53	=53
1E-	1G	1r	1c	1g
1D	2r	1A	[1d	1f#
.	[2D	.	.	.
=54	=54	=54	=54	=54
1GG	2D]	1.B	2d]	1.g
.	1G	.	2d	.
1GG	.	.	1d	.
.	2G	2B	.	2g
=55	=55	=55	=55	=55
0C	2.G	1.c	0e	1g
.	4F	.	.	.
.	2E	.	.	1g
.	[2c	2G	.	.
=56	=56	=56	=56	=56
1AA	4c]	2.c	1e	0a
.	4B-	.	.	.
.	4A	.	.	.
.	4G	4B-	.	.
1D	2F	1A	2.f	.
.	2F	.	.	.
.	.	.	4e	.
=57	=57	=57	=57	=57
2GG	4G	0G	2.d	2.b-
.	4A	.	.	.
2.GG	4B-	.	.	.
.	4c	.	4c	4a
.	1d	.	1B-	1g
4AA	.	.	.	.
4BB-	.	.	.	.
4C	.	.	.	.
=58	=58	=58	=58	=58
2.D	1d	2r	2A	[0f
.	.	1B-	1d	.
4E	.	.	.	.
1F	1r	.	.	.
.	.	4A	4c	.
.	.	4G	4B-	.
=59	=59	=59	=59	=59
0r	1r	2A	2c	1f]
.	.	2.B-	2.d	.
.	[1G	.	.	[1b-
.	.	4c	4c	.
.	.	[2d	4B-	.
.	.	.	4A	.
=60	=60	=60	=60	=60
2r	2G]	2d]	2G	2b-]
1D	4F#	2d	2A	4a
.	4E	.	.	4g
.	2F#	2A	2d	2a
[2GG	4G	[2d	2B-	[2b-
.	4A	.	.	.
=61	=61	=61	=61	=61
4GG]	4B-	4d]	1d	4b-]
4AA	4c	4c	.	4a
4BB-	1d	2B-	.	1g
4C	.	.	.	.
2D	.	2.A	1d	.
2D	2A	.	.	2f#
.	.	4A	.	.
=62	=62	=62	=62	=62
2GG	2B-	1G	0d	1g
1G	1B-	.	.	.
.	.	2r	.	1r
2F	2A	[2d	.	.
=63	=63	=63	=63	=63
2D	2F	2d]	0r	0r
1F	1A	2c	.	.
.	.	2A	.	.
2E-	2G	2c	.	.
=64	=64	=64	=64	=64
1D	1F	2B-	0r	1r
.	.	2.A	.	.
2.BB-	2.D	.	.	2r
.	.	8G	.	.
.	.	8F	.	.
.	.	2G	.	[2dd
4BB-	4D	.	.	.
=65	=65	=65	=65	=65
1AA	1E	2.A	0r	2dd]
.	.	.	.	2cc
.	.	4A	.	.
1AA	1F#	1A	.	2a
.	.	.	.	[2cc
=66	=66	=66	=66	=66
2GG	2G	1d	2r	2cc]
2GG	2G	.	1g	2b-
[1D	[1A	[1d	.	1a
.	.	.	2f	.
=67	=67	=67	=67	=67
1D]	1A]	2d]	2d	2.f
.	.	2d	1f	.
.	.	.	.	4f
1r	1r	2.c	.	2g
.	.	.	2e-	2g
.	.	4B-	.	.
=68	=68	=68	=68	=68
1D	1F	1A	1d	2.a
.	.	.	.	4a
[1E-	[1G	2r	2.B-	[1g
.	.	2G	.	.
.	.	.	4B-	.
=69	=69	=69	=69	=69
1E-]	1G]	2C	2c	1g]
.	.	2C	2c	.
2.D	1A	2.F	2d	2r
.	.	.	2d	[2f
4C	.	4E	.	.
=70	=70	=70	=70	=70
0BB-	2.B-	2D	2d	2f]
.	.	2.d	1f	2d
.	4c	.	.	.
.	1d	.	.	2.f
.	.	4c	.	.
.	.	2B-	2d	.
.	.	.	.	4g
=71	=71	=71	=71	=71
0F	2c	4A	0f	2a
.	.	8B-	.	.
.	.	8c	.	.
.	2B-	2d	.	1b-
.	2c	1c	.	.
.	2F	.	.	2a
=72	=72	=72	=72	=72
1BB-	2r	1d	1f	1b-
.	2B-	.	.	.
1E-	2B-	1G	1g	1r
.	2c	.	.	.
=73	=73	=73	=73	=73
1.D	2d	1A	1.f	0r
.	4D	.	.	.
.	4E	.	.	.
.	4F	2D	.	.
.	4G	.	.	.
2C	[2A	2E	2e	.
=74	=74	=74	=74	=74
1BB-	2A]	2F	1d	1r
.	1G	2G	.	.
1AA	.	1C	2.c	1cc
.	2F#	.	.	.
.	.	.	4d	.
=75	=75	=75	=75	=75
1GG	1G	2r	2e-	1.b-
.	.	1G	4d	.
.	.	.	4c	.
1r	1r	.	4d	.
.	.	.	4B-	.
.	.	2A	2c	2a
=76	=76	=76	=76	=76
1r	1r	2B	2d	1g
.	.	2c	2e-	.
1D	2r	1A	[1d	1f#
.	2A	.	.	.
=77	=77	=77	=77	=77
1GG	1B-	2G	1d]	1g
.	.	2G	.	.
1GG	1G	2D	2r	1b-
.	.	2E-	2B-	.
=78	=78	=78	=78	=78
0BB-	1F	1D	2d	2b-
.	.	.	2f	2B-
.	2.D	2BB-	1F	1d
.	.	[2B-	.	.
.	4E	.	.	.
=79	=79	=79	=79	=79
1FF	1F	2B-]	2F	1c
.	.	2A	1c	.
1GG	1r	2.G	.	2e-
.	.	.	2B-	[2d
.	.	4F	.	.
=80	=80	=80	=80	=80
[0AA	1r	0E	1A	2d]
.	.	.	.	4c#
.	.	.	.	4B
.	2r	.	2r	2c#
.	[2A	.	[2c#	[2e
=81	=81	=81	=81	=81
1AA]	4A]	1r	4c#]	4e]
.	4A	.	4c#	4e
.	2A	.	2c#	2f
1r	1B-	2r	1d	1g
.	.	[2d	.	.
=82	=82	=82	=82	=82
1r	1A	4d]	1e	0a
.	.	4c#	.	.
.	.	2c#	.	.
2r	2r	1d	2f	.
[2D	[2F	.	[2A	.
=83	=83	=83	=83	=83
4D]	4F]	1d	4A]	1r
4D	4F	.	4A	.
2D	2F	.	2B-	.
1E-	2G	2r	1c	2r
.	2G	2G	.	2g
=84	=84	=84	=84	=84
1D	0r	2G	[0d	2b-
.	.	2F#	.	2a
1r	.	2G	.	2b-
.	.	[2B-	.	[2dd
=85	=85	=85	=85	=85
1G	2r	4B-]	1d]	4dd]
.	.	4A	.	4cc
.	2G	4B-	.	4b-
.	.	4c	.	4a
2G	2B-	2d	2r	2g
2F#	2A	2D	2d	2a
=86	=86	=86	=86	=86
2G	2B-	2r	1d	2.g
2.B-	2.d	1G	.	.
.	.	.	.	4a
.	.	.	1G	2b-
4A	4c	.	.	.
4G	4B-	[2B-	.	[2b-
4F#	4A	.	.	.
=87	=87	=87	=87	=87
1G	4G	4B-]	1d	4b-]
.	4A	4c	.	4a
.	4B-	2.d	.	1g
.	4G	.	.	.
1D	1A	.	1d	.
.	.	4c	.	.
.	.	2A	.	2f#
=88	=88	=88	=88	=88
1GG	1G	1B	1d	0g
2r	2r	2r	2r	.
[2C	[2G	[2c	[2e-	.
=89	=89	=89	=89	=89
2C]	2G]	2c]	2e-]	0r
2BB	2G	2d	2d	.
1C	1G	1e-	1c	.
=90	=90	=90	=90	=90
2GG	2G	2d	2B	0r
2C	2E	2G	2c	.
1BB-	[1F	2.B-	1d	.
.	.	8A	.	.
.	.	8G	.	.
=91	=91	=91	=91	=91
2FF	1F]	2A	2c	0r
4BB-	.	2B-	1d	.
4C	.	.	.	.
4D	[1F	2.A	.	.
4E	.	.	.	.
[2F	.	.	4c	.
.	.	4B-	4B-	.
=92	=92	=92	=92	=92
2F]	1F]	2c	2A	0r
4E	.	1d	2A	.
4D	.	.	.	.
2E	2.G	.	2G	.
2E	.	2c#	[2g	.
.	4G	.	.	.
=93	=93	=93	=93	=93
1D	2A	2.d	2g]	1r
.	1d	.	1f	.
.	.	8c	.	.
.	.	8B-	.	.
1r	.	1A	.	1a
.	[2c	.	4e	.
.	.	.	4d	.
=94	=94	=94	=94	=94
0r	2c]	0r	2e	2g
.	2B-	.	2d	2g
.	2.A	.	2.c	2f
.	.	.	.	[2e
.	4G	.	4B-	.
=95	=95	=95	=95	=95
1r	2F	0r	2A	4e]
.	.	.	.	4d
.	2G	.	2B-	1d
2r	1E	.	1G	.
[2G	.	.	.	2c#
=96	=96	=96	=96	=96
2G]	1D	2r	2A	1d
1F	.	2d	2A	.
.	2r	2c	2A	1r
2E-	2G	2c	2G	.
=97	=97	=97	=97	=97
2.D	2G	2B-	1.d	0r
.	2F	2.A	.	.
4C	.	.	.	.
2BB-	2D	.	.	.
.	.	4G	.	.
2C	2E-	[2G	2c	.
=98	=98	=98	=98	=98
1AA	1C	2G]	1c	1a
.	.	2F#	.	.
[1GG	2D	2G	2B-	[1b-
.	2d	2G	2G	.
=99	=99	=99	=99	=99
1GG]	2.d	2.G	2.g	2b-]
.	.	.	.	2b-
.	4d	4G	4g	.
1r	1d	2D	2f	2a
.	.	[2G	[2d	[2b-
=100	=100	=100	=100	=100
1r	1r	2G]	2d]	2b-]
.	.	2c	2e-	2a
2r	2r	2B-	2d	2g
2D	2A	2A	2d	2f#
=101	=101	=101	=101	=101
1.G	1.B-	2G	1d	0g
.	.	2d	.	.
.	.	2e-	1r	.
2G	2B-	2d	.	.
=102	=102	=102	=102	=102
2F#	2A	2d	0r	0r
1G	1B-	1e-	.	.
2F	2A	2d	.	.
=103	=103	=103	=103	=103
2E-	2G	2c	1r	1r
2D	2F	2B	.	.
2C	2G	2.c	[1e-	2r
[2C	[2c	.	.	[2g
.	.	8B-	.	.
.	.	8A	.	.
=104	=104	=104	=104	=104
2C]	2c]	1G	2e-]	2g]
2BB	2d	.	2d	2g
2C	2e-	1r	2c	2g
2D	2d	.	2A	2f#
=105	=105	=105	=105	=105
1E-	4B-	1r	4G	1g
.	4A	.	4A	.
.	2G	.	4B-	.
.	.	.	4c	.
2D	1A	2r	2d	1f#
2D	.	2d	2A	.
=106	=106	=106	=106	=106
2E	2r	2c	2r	0r
2F	2c	2A	2f	.
4G	2B-	4B-	2d	.
4A	.	4c	.	.
[2B-	2G	4d	2d	.
.	.	4B-	.	.
=107	=107	=107	=107	=107
2B-]	1F	1c	1f	1r
2A	.	.	.	.
1B-	2B-	1d	1f	2r
.	2d	.	.	2d
=108	=108	=108	=108	=108
1A	2c	0r	2r	2e
.	2A	.	2c	2f
2G	4B-	.	2.d	4g
.	4c	.	.	4a
2G	4d	.	.	[2b-
.	4B-	.	4e	.
=109	=109	=109	=109	=109
1F	1c	1r	1f	2b-]
.	.	.	.	2a
1BB-	1B-	2r	2d	2b-
.	.	2d	2f	2b-
=110	=110	=110	=110	=110
0r	0r	2e-	2g	2b-
.	.	2d	2f	2b-
.	.	2c	4e	2cc
.	.	.	4f	.
.	.	2e-	[2g	2g
=111	=111	=111	=111	=111
1D	0r	1d	2g]	1a
.	.	.	2f#	.
2E-	.	2B-	2g	2g
2D	.	2B-	2f	2b-
=112	=112	=112	=112	=112
2C	1r	4c	2e-	4a
.	.	4B-	.	4g
2E-	.	4A	2c	1g
.	.	4G	.	.
1D	2r	1A	1d	.
.	2d	.	.	2f#
=113	=113	=113	=113	=113
2C	2e-	2c	1G	0g
2BB	2d	2d	.	.
1C	2c	4e-	2r	.
.	.	4d	.	.
.	2e-	4c	[2g	.
.	.	4B-	.	.
=114	=114	=114	=114	=114
1D	1d	4A	2g]	0r
.	.	4G	.	.
.	.	2A	2f	.
2.E-	2c	2.G	[1e-	.
.	[2B-	.	.	.
4D	.	8A	.	.
.	.	8B-	.	.
=115	=115	=115	=115	=115
1C	2B-]	1c	1e-]	1r
.	2A	.	.	.
1BB-	1B-	2F	1d	1f
.	.	2D	.	.
=116	=116	=116	=116	=116
1GG	2r	2.G	2d	2.b-
.	1G	.	1g	.
.	.	4G	.	4b-
2.C	.	1E	.	2g
.	[2c	.	2e	2g
4C	.	.	.	.
=117	=117	=117	=117	=117
1AA	4c]	2.A	1e	2.cc
.	4c	.	.	.
.	1A	.	.	.
.	.	4G	.	4cc
2.D	.	4F	2.f	1a
.	.	4E	.	.
.	[2d	4D	.	.
4C	.	4E	4e	.
=118	=118	=118	=118	=118
2.BB-	4d]	1F	[0d	2.dd
.	4c	.	.	.
.	2.B-	.	.	.
4AA	.	.	.	4cc
4GG	.	2G	.	1b-
4AA	4A	.	.	.
4BB-	2G	[2d	.	.
4C	.	.	.	.
=119	=119	=119	=119	=119
0D	2F#	4d]	0d]	2a
.	.	4c	.	.
.	2G	2B-	.	1g
.	1A	1A	.	.
.	.	.	.	2f#
=120	=120	=120	=120	=120
0GG	0B	0G	0d	0g
=121	=121	=121	=121	=121
0r	1B-	1r	1d	1f
.	[1G	1d	2.B-	1g
.	.	.	4c	.
=122	=122	=122	=122	=122
0r	2G]	2.B-	2d	1.b-
.	2G	.	2e	.
.	.	4c	.	.
.	[1F	2d	[1f	.
.	.	2c	.	2a
=123	=123	=123	=123	=123
0r	1F]	2c	2f]	1a
.	.	1A	2c	.
.	1D	.	4d	1f
.	.	.	4e	.
.	.	[2d	[2f	.
=124	=124	=124	=124	=124
0r	0G	2d]	2f]	1g
.	.	2c	4e	.
.	.	.	4d	.
.	.	1B-	1e	1b-
=125	=125	=125	=125	=125
0r	1F	2c	2f	1a
.	.	2F	2f	.
.	1r	2G	2e-	1r
.	.	[2B-	[2d	.
=126	=126	=126	=126	=126
0r	0r	2B-]	2d]	1f
.	.	2A	2c	.
.	.	1G	4B-	2g
.	.	.	4c	.
.	.	.	4d	[2b-
.	.	.	4B-	.
=127	=127	=127	=127	=127
0r	2r	1F	1c	2b-]
.	2F	.	.	2a
.	2G	2r	2.B-	1g
.	[2B-	[2d	.	.
.	.	.	4c	.
=128	=128	=128	=128	=128
0r	2B-]	2d]	4d	1f
.	.	.	4e	.
.	2A	2c	2f	.
.	2G	2.d	2g	2r
.	[2D	.	[2f	[2a
.	.	4c	.	.
=129	=129	=129	=129	=129
0r	2D]	4A	2f]	2a]
.	.	4B-	.	.
.	2E-	1c	2e-	2g
.	2F	.	2.d	2a
.	[2G	4B-	.	[2b-
.	.	4A	4c	.
=130	=130	=130	=130	=130
0r	2G]	1G	2B-	4b-]
.	.	.	.	4a
.	2E-	.	2c	1g
.	1D	2A	[1d	.
.	.	2A	.	2f#
=131	=131	=131	=131	=131
0r	2r	1G	1d]	2g
.	2.G	.	.	4g
.	.	.	.	4a
.	.	1r	2r	4b-
.	4A	.	.	4cc
.	4B-	.	4G	4dd
.	4c	.	4A	4cc
=132	=132	=132	=132	=132
0r	0d	2r	4B-	2b-
.	.	.	4c	.
.	.	2.D	4d	4a
.	.	.	4e	4g
.	.	.	1f	2a
.	.	4E	.	.
.	.	4F	.	[2a
.	.	4G	.	.
=133	=133	=133	=133	=133
0r	2c	2A	2e	2a]
.	2B-	1d	2d	2g
.	1A	.	1e	1a
.	.	2c#	.	.
=134	=134	=134	=134	=134
0r	1D	1d	2r	1f#
.	.	.	2d	.
.	2G	2r	2B-	2g
.	2F#	2d	2A	2a
=135	=135	=135	=135	=135
0r	1.G	2d	4G	2.b-
.	.	.	4A	.
.	.	2d	4B-	.
.	.	.	4c	4a
.	.	2B-	2d	2g
.	2A	2A	2c	2f#
=136	=136	=136	=136	=136
0r	2B	0G	2d	1g
.	1c	.	4e	.
.	.	.	8d	.
.	.	.	8c	.
.	.	.	1d	1g
.	2B	.	.	.
=137	=137	=137	=137	=137
0r	1c	2C	2e	2r
.	.	1c	1e	1g
.	1r	.	.	.
.	.	2B-	2d	2g
=138	=138	=138	=138	=138
0r	2r	2.A	2f	1a
.	1c	.	2e	.
.	.	4G	.	.
.	.	2F	[1d	2a
.	2B	2G	.	[2g
=139	=139	=139	=139	=139
0r	2.A	1.D	1d]	2g]
.	.	.	.	4f#
.	4A	.	.	4e
.	2A	.	1d	2f#
.	2B	2G	.	2g
=140	=140	=140	=140	=140
0r	2.c	2.F	2.f	2.a
.	4c	4F	4f	4a
.	2c	2.F	[1f	2a
.	4A	.	.	[2cc
.	4B-	4G	.	.
=141	=141	=141	=141	=141
0r	4c	2A	1f]	2cc]
.	4A	.	.	.
.	1d	1B-	.	4b-
.	.	.	.	4a
.	.	.	2.f	2b-
.	[2c	2F	.	[2a
.	.	.	4e	.
=142	=142	=142	=142	=142
0r	4c]	1G	1.d	2a]
.	4B-	.	.	.
.	4B-	.	.	1g
.	8A	.	.	.
.	8G	.	.	.
.	2A	1D	.	.
.	2A	.	2d	2f#
=143	=143	=143	=143	=143
0r	2G	0r	2B-	1g
.	2c	.	2e-	.
.	2B-	.	2d	2r
.	2G	.	2B-	2g
=144	=144	=144	=144	=144
0r	1B-	2r	2.d	2f
.	.	2G	.	2d
.	.	.	8c	.
.	.	.	8B-	.
.	2c	2F	4A	2.f
.	.	.	4F	.
.	[2d	2D	[2f	.
.	.	.	.	4g
=145	=145	=145	=145	=145
0r	4d]	1F	2f]	1a
.	4c	.	.	.
.	1c	.	2e	.
.	.	1G	1d	1g
.	2B	.	.	.
=146	=146	=146	=146	=146
0r	1c	1C	2r	0g
.	.	.	2e-	.
.	2r	[1G	2d	.
.	2e-	.	[2B-	.
=147	=147	=147	=147	=147
0r	2d	1G]	4B-]	2r
.	.	.	4c	.
.	2B-	.	4d	2b-
.	.	.	4e	.
.	1d	2r	1f	2a
.	.	2B-	.	2f
=148	=148	=148	=148	=148
0r	1c	2A	2r	1a
.	.	2F	2f	.
.	1F	1A	[1f	2.cc
.	.	.	.	4b-
=149	=149	=149	=149	=149
0r	0r	2.c	2f]	2a
.	.	.	2e	2g
.	.	4B-	.	.
.	.	2A	2c	2f
.	.	2G	[2e	[2g
=150	=150	=150	=150	=150
0r	0r	1B-	4e]	4g]
.	.	.	4d	4f
.	.	.	1d	4e
.	.	.	.	4d
.	.	1A	.	1e
.	.	.	2c#	.
=151	=151	=151	=151	=151
0r	1r	2D	1d	2d
.	.	2G	.	2b-
.	2r	2F	2r	2a
.	2B-	2D	2d	2f
=152	=152	=152	=152	=152
0r	2A	2F	2c	1a
.	2F	2.A	2A	.
.	1A	.	2.F	2.cc
.	.	4G	.	.
.	.	[2F	.	.
.	.	.	4G	4b-
=153	=153	=153	=153	=153
0r	2.c	2F]	4A	2a
.	.	.	4B-	.
.	.	2E	2c	2g
.	4B-	.	.	.
.	2A	2F	2c	2a
.	2G	[2G	2B-	[2b-
=154	=154	=154	=154	=154
0r	1B-	4G]	1d	4b-]
.	.	4F#	.	4a
.	.	2G	.	1g
.	1A	1D	1d	.
.	.	.	.	2f#
=155	=155	=155	=155	=155
0r	0B	0G	0d	0g
=156	=156	=156	=156	=156
1GG	1G	1B	1d	1g
2C	2G	2c	2e-	1g
2BB	2G	2d	2d	.
=157	=157	=157	=157	=157
2C	2.G	2e-	2c	0g
2C	.	2c	2e-	.
.	4G	.	.	.
2GG	2G	2B-	1d	.
[2G	2G	[2B-	.	.
=158	=158	=158	=158	=158
2G]	2B-	2B-]	2.d	0r
2F	2.d	2A	.	.
.	.	.	4d	.
1E-	.	1G	1g	.
.	8c	.	.	.
.	8B-	.	.	.
.	2c	.	.	.
=159	=159	=159	=159	=159
0D	0d	1A	1f#	2r
.	.	.	.	2a
.	.	2r	2r	2b-
.	.	2d	2f#	2a
=160	=160	=160	=160	=160
0r	0r	2e-	2g	2g
.	.	2d	2f	2a
.	.	2c	4e	4cc
.	.	.	4f	4b-
.	.	2e-	[2g	4a
.	.	.	.	4g
=161	=161	=161	=161	=161
1D	0r	1d	2g]	1a
.	.	.	2f#	.
2E-	.	2B-	2g	2g
2D	.	2B-	2f	2b-
=162	=162	=162	=162	=162
2C	1r	4c	2e-	4a
.	.	4B-	.	4g
2E-	.	4A	2c	1g
.	.	4G	.	.
1D	2r	1A	1d	.
.	2d	.	.	2f#
=163	=163	=163	=163	=163
2C	2e-	2c	1G	0g
2BB	2d	2d	.	.
1C	2c	4e-	2r	.
.	.	4d	.	.
.	2e-	4c	[2g	.
.	.	4B-	.	.
=164	=164	=164	=164	=164
1D	1d	4A	2g]	0r
.	.	4G	.	.
.	.	2A	2f	.
2.E-	2c	2.G	[1e-	.
.	[2B-	.	.	.
4D	.	8A	.	.
.	.	8B-	.	.
=165	=165	=165	=165	=165
1C	2B-]	1c	1e-]	1r
.	2A	.	.	.
1BB-	1B-	2F	1d	1f
.	.	2D	.	.
=166	=166	=166	=166	=166
1GG	2r	2.G	2d	2.b-
.	1G	.	1g	.
.	.	4G	.	4b-
2.C	.	1E	.	2g
.	[2c	.	2e	2g
4C	.	.	.	.
=167	=167	=167	=167	=167
1AA	4c]	2.A	1e	2.cc
.	4c	.	.	.
.	1A	.	.	.
.	.	4G	.	4cc
2.D	.	4F	2.f	1a
.	.	4E	.	.
.	[2d	4D	.	.
4C	.	4E	4e	.
=168	=168	=168	=168	=168
2.BB-	4d]	1F	[0d	2.dd
.	4c	.	.	.
.	2.B-	.	.	.
4AA	.	.	.	4cc
4GG	.	2G	.	1b-
4AA	4A	.	.	.
4BB-	2G	[2d	.	.
4C	.	.	.	.
=169	=169	=169	=169	=169
0D	2F#	4d]	0d]	2a
.	.	4c	.	.
.	2G	2B-	.	1g
.	1A	1A	.	.
.	.	.	.	2f#
=170	=170	=170	=170	=170
[0GG	[0B	[0G	[0d	[0g
=171	=171	=171	=171	=171
0GG]	0B]	0G]	0d]	0g]
==	==	==	==	==
*-	*-	*-	*-	*-
!!!CDT: 1525/^1526/-1594/2/2
!!!OCY: Italia
!!!AGN: Mass (Paraphrase)
!!!AST: renaissance, vocal
!!!ASW: Gregorian Mass
!!!PWK: Masses, Book 1
!!!RNB: Cadence finals: F,G,D
!!!YOR: Le Opere Complete, v. 1, p. 164
!!!YOO: Rome, Italy: Fratelli Scalera
!!!END: 1992//
!!!EED: John Miller
!!!YEC: Copyright 2000, John Miller
!!!YEN: United States of America
!!!YEM: Rights to all derivative electronic formats reserved.
!!!YEM: Refer to licensing agreement for further details.
!!!YEM: This file must be accompanied by the licensing agreement.
!!!YEM: A copy of the licensing agreement may be found at http://www.music-cog.ohio-state.edu/HumdrumDatabases/Palestrina/license.txt
!!!EMD: converted to Humdrum by Bret Aarden
